X:1
T:Nocturne in C minor (posth.) Comparison of Editions
T:NOCTURNE IN C MINOR
T:Frédéric Chopin
T:B.108 (posth.) Comparison of Editions
T:Public Domain
T:Public Domain
T:Public Domain
T:Public Domain
T:Public Domain
T:Public Domain
T:Public Domain
T:Public Domain
T:Public Domain
T:Public Domain
C:Frédéric Chopin
Z:Public Domain
%%score { 1 | 2 } { 3 | 4 } { 5 | 6 }
L:1/8
Q:1/4=80
M:4/4
K:Eb
V:1 treble nm="Urtext" snm="Urt."
V:2 bass 
V:3 treble nm="1st Edition" snm="1st."
V:4 bass 
V:5 treble nm="Paderewski" snm="Pdr."
V:6 bass 
V:1
 (G2 | c>de>f g2 g2) | (^f>g{gb}a>g c4) | (d>G{GB}A>G) G2 c2 | %4
 (12:8:12(c/d/c/=B/c/d/e/=e/f/^f/a/g/) d4 | (c>de>f g2 g2) | (^f>g{gb}a>g c4) | %7
 (d>G{GB}A>G G2) c2 | (5:4:5(d/e/d/c/d/ e>d c2) z (G | c>de>f g2 g2) | (^f>g{gb}a>g c4) | %11
 (d>G{GB}A>G G2) c2 | (12:8:12(c/d/c/=B/c/d/e/=e/f/^f/a/g/) d4 | (c>de>f g2 g2) | %14
 (^f>g!<(!{gb}a>g c'4-)!<)! | (c'b/a/ g/f/e/d/ e>d c2) | (GA/G/ ^F/G/e/d/ c2) z (c' | %17
 _d'>c' (3ba3/2g/ a>g f2-) | (fe/_d/ c/d/A/B/ c4) | (3(c'_d'c' (3ba3/2g/ a>g f2-) | %20
 (fe/_d/ c/d/A/B/ c4) | (=B>cf>g a2) f2 | (3(=e/f/e/ ^d/4e/4g/4b/4 _d'>c') c'2 (f'2 | %23
 f'_d'bf a>g f2) | z/ (c/_d/c/ =B/c/a/g/ f4) | (9:8:9(=B/c/^c/d/e/=e/f/^f/g/ a2) =f2 | %26
 z/4 (=e/4f/4e/4 ^d/4e/4g/4b/4 _d'>c' c'2)!8va(!{/f'} !>!f''2- | %27
 (11:6:11(f''/_d''/b'/g'/f'/_d'/b/g/!8va)!f/_d/B/ F/>G/) (A>G F2) | %28
 (14:8:14z/ (F/=E/F/A/G/_d/c/f/=e/a/g/_d'/c'/ f4) | (5:4:5(e/f/e/=d/e/{eg} f>e eag>f | %30
 (3fe_d (3Pdc3/2)(B/ f2 e2) | (5:4:5(e/f/e/=d/e/{eg} f>e) (5:4:5(e/c'/g/b/a/ (3ecA) | %32
 (9:8:9(G/B/_d/f/e/a/g/c'3/4b/4 a4) | (a>g (3fe3/2d/ e>d c2-) | (cB/A/ G/A/E/F/ G4) | %35
 (3(gag (3fe3/2d/ e>d c2-) | (cB/A/ G/A/E/F/ G4) | (^F>Gc>d e2 c2) | %38
 (3(=B/c/B/ ^A/4B/4d/4f/4 _a>g g2) (c'2- | c'afc e>d c2) | z/ (G/A/G/ ^F/G/e/d/ c4) | %41
 (G/A/=A/B/=B/c/^c/d/ e2 =c2) | z/4 (=B/4c/4B/4 ^A/4B/4d/4f/4 _a>g g2)!8va(!{/c'} !>!c''2- | %43
 (3(c''/a'/f'/d'/4!8va)!c'/4a/4f/4d/4c/4A/4F/4 C/>D/) (E>D C2) | %44
 z/ (11:7:11(G/^F/G/A/G/c/=B/e/d/a/g/ c4) |] %45
V:2
 z2 | C,,G,[CE]G, C,G,[CEG]G, | C,G,[=B,F]G, C,G,[CE]G, | G,,G,[=B,F]G, C,G,[CE]G, | %4
 G,,G,[CE]G, G,,G,[=B,D]G, | C,G,[CE]G, C,G,[CEG]G, | C,G,[=B,F]G, C,G,[CE]G, | %7
 G,,G,[=B,F]G, C,G,[CE]G, | G,,G,[=B,F]G, C,G,[CE]G, | C,,G,[CE]G, C,G,[CE]G, | %10
 C,G,[=B,F]G, C,G,[CE]G, | G,,G,[=B,F]G, C,G,[CE]G, | G,,^F,[CE]F, G,,G,[=B,D]G, | %13
 C,G,[CE]G, C,G,[CE]G, | C,[G,B,]C=E F,,F,[A,CF]F, | F,,F,[A,D]F, G,,G,CE | %16
 G,,G,[=B,=F]G, C,,(C,G,)[CE] | C,G,[B,=E]G, F,A,[CF]A, | C,_A,[_DF]A, C,G,[C=E]G, | %19
 C,G,=EG, F,A,FC | C,A,[_DF]A, C,G,[C=E]G, | =E,_B,CG [F,A,]CFC | [G,B,]C=EC A,CFC | %23
 B,,G,[_DF]G, C,A,[CF]A, | C,B,[C=E]B, F,A,[CF]A, | C,_B,C=E [F,A,]CFC | [G,B,]C=EC A,CFC | %27
 B,,G,[_DF]G, C,F,[A,C]F, | C,B,C=E [F,A,]CFC | E,_DEG E,C[EA]C | E,E[_DG]E E,C[EA]C | %31
 E,_DEG E,C[EA]C | E,E[_DG]E [A,C]CAE | =B,,G,DF C,G,CE | G,,E,[_A,C]E, G,,D,[G,=B,]D, | %35
 G,,F,G,=B, G,,E,G,C | G,,E,[_A,C]E, G,,D,[G,=B,]D, | =B,,=F,G,D C,G,[CE]G, | %38
 D,G,[=B,F]G, E,G,[CE]G, | F,,D,[A,C]D, G,,E,[G,C]E, | G,,F,G,=B, C,E,[G,C]E, | %41
 G,,F,G,=B, [C,E,]G,CG, | [D,F,]G,DG, E,G,CE | F,,F,[A,D]F, G,,C,[E,G,]C, | %44
 [G,,,G,,]G,[DF]G, !arpeggio![C,G,E]4 |] %45
V:3
!p! (G2 | c>de>f g2 g2) | (^f>g{gb}a>g c4) | (d>G{GB}A>G) G2 c2 | %4
 (12:8:12(c/d/c/=B/c/d/e/=e/f/^f/a/g/ d4) | (c>de>f g2 g2) | (^f>g{gb}a>g c4) | %7
 (d>G{GB}A>G) G2 c2 | (5:4:5(d/e/d/c/d/ e>d c2) z G | (c>de>f g2 g2) | (^f>g{gb}a>g c4) | %11
 (d>G{GB}A>G) G2 c2 | (12:8:12(c/d/c/=B/c/d/e/=e/f/^f/a/g/ d4) | (c>de>f g2 g2) | %14
 (^f>g!<(!{gb}a>g) c'4- | (c'!<)!b/a/ g/f/e/d/ e>d c2) | (GA/G/ ^F/G/e/d/ c2) z c' | %17
 (_d'>c' (3(ba3/2g/) a>g f2-) | (fe/_d/ c/d/A/B/ c4) | (3(c'_d'c' (3ba3/2g/ a>g f2-) | %20
 (fe/_d/ c/d/A/B/ c4) | (=B>cf>g a2 f2) | (3(=e/f/e/ ^d/4e/4g/4b/4 _d'>c' c'2 f'2) | %23
 (f'_d'bf a>g f2) | z/ (c/_d/c/ =B/c/a/g/ f4) | (9:8:9(=B/c/^c/d/e/=e/f/^f/g/ a2) =f2 | %26
 z/4 (=e/4f/4e/4 ^d/4e/4g/4b/4 _d'>c') .c'2!8va(!{/f'} !>!f''2- | %27
 (3(f''/_d''/b'/g'/4f'/4_d'/4b/4!8va)!g/4f/4_d/4B/4 F/>G/) A>G F2 | %28
 (14:8:14z/ (F/=E/F/A/G/_d/c/f/=e/a/g/_d'/c'/) f4 | (5:4:5(_e/f/e/=d/e/{eg} f>e eag>f) | %30
 (3(fe_d (3Pdc3/2B/ f2 e2) | (5:4:5(e/f/e/=d/e/{eg} f>e) (5:4:5(e/c'/g/b/a/ (3ecA) | %32
 (9:8:9(G/B/_d/f/e/a/g/c'/b/) a4 | (a>g (3fe3/2d/ e>d c2-) | (cB/A/ G/A/E/F/ G4) | %35
 (3(gag (3fe3/2d/ e>d c2-) | (cB/A/ G/A/E/F/ G4) | (^F>Gc>d e2 c2) | %38
 (3(=B/c/B/ ^A/4B/4d/4f/4 _a>g g2) c'2- | (c'afc e>d c2) | z/ (G/A/G/ ^F/G/e/d/ c4) | %41
 (G/A/=A/B/=B/c/^c/d/) (e2 =c2) | z/4 (=B/4c/4B/4 ^A/4B/4d/4f/4 _a>g g2)!8va(!{/c'} c''2- | %43
 (3(c''/a'/f'/!8va)!d'/4c'/4a/4f/4d/4c/4A/4F/4) (C/>D/ E>D C2) | %44
 (12:8:12z/ (G/^F/G/A/G/c/=B/e/d/_a/g/ c4) |] %45
V:4
 z2 | C,,G,[CE]G, C,G,[CEG]G, | C,G,[=B,F]G, C,G,[CE]G, | G,,G,[=B,F]G, C,G,[CE]G, | %4
 G,,^F,EF, G,,G,[=B,D]G, | C,G,[CE]G, C,G,[CEG]G, | C,G,[=B,F]G, C,G,[CE]G, | %7
 C,G,[=B,F]G, C,G,[CE]G, | G,,G,[=B,F]G, C,G,[CE]G, | C,,G,[CEG]G, C,G,[CEG]G, | %10
 C,,G,[=B,F]G, C,G,[CE]G, | G,,G,[=B,F]G, C,G,[CE]G, | G,,^F,EF, G,,G,[=B,D]G, | %13
 C,G,[CE]G, C,G,[CE]G, | C,[G,B,]C=E F,,F,[A,CF]F, | F,,F,[A,D]F, G,,G,C_E | %16
 G,,G,[=B,=F]G, (C,,C,G,E) | C,G,[B,=E]G, F,A,[CF]A, | C,_A,[_DF]A, C,G,[C=E]G, | C,G,=EG, F,A,FC | %20
 C,_A,[_DF]A, C,G,[C=E]G, | =E,_B,CG [F,A,]CFC | [G,B,]C=EC A,CFC | B,,G,[_DF]G, C,A,[CF]A, | %24
 C,B,[C=E]B, F,A,[CF]A, | C,_B,C=E [F,A,]CFC | [G,B,]C=EC A,CFC | B,,G,[_DF]G, C,F,[A,C]F, | %28
 C,B,C=E [F,A,]CFC | _E,_DEG E,C[EA]C | E,E[_DG]E E,C[EA]C | E,_DEG E,C[EA]C | E,E[_DG]E [A,C]EAE | %33
 =B,,G,DF C,G,CE | G,,E,[_A,C]E, G,,D,[G,=B,]D, | G,,F,G,=B, G,,E,G,C | %36
 G,,E,[_A,C]E, G,,D,[G,=B,]D, | =B,,=F,G,D C,G,EG, | D,G,[=B,F]G, E,G,[CE]G, | %39
 F,,D,[A,C]D, G,,E,[G,C]E, | G,,F,G,=B, C,E,[G,C]E, | =B,,F,G,=B, [C,E,]G,CG, | %42
 [D,F,]G,DG, E,G,CE | F,,F,[A,D]F, G,,C,[E,G,]C, | [G,,,G,,]G,[DF]G, !arpeggio![C,G,E]4 |] %45
V:5
!p! (G2 | c>de>f g2 g2 | ^f>g{gb}a>g c4) | (d>"_cresc."G{GB}A>G G2 c2 | %4
!<(! (12:8:12c/d/c/=B/c/d/e/=e/f/^f/a/g/!<)!!>(! d4)!>)! |!p! (c>de>f g2 g2 | ^f>g{gb}a>g c4) | %7
 (d>G{GB}A>G G2 c2 |"_dim." (5:4:5d/e/d/c/d/ e>d c2) z (G |!pp! c>de>f g2 g2 | ^f>g{gb}a>g c4) | %11
 (d>G"_cresc."{GB}A>G G2 c2 |!<(! (12:8:12c/d/c/=B/c/d/e/=e/f/^f/a/g/!<)!!>(! d4)!>)! | %13
!p! (c>de>f g2 g2 | ^f>g!<(!{gb}a>g c'4-!<)! | c'b/a/ g/f/e/d/"_dim." e>d c2 | %16
 GA/G/ ^F/G/e/d/ c2) z (c' |!mf! _d'>c' (3ba3/2g/ a>g f2- |!p! fe/_d/ c/d/A/B/ c4) | %19
!f! (3(c'_d'c' (3ba3/2g/ a>g f2- |!p! fe/_d/ c/d/A/B/ c4) |"^animato" (=B>cf>g a2 f2 | %22
"_cresc." (3=e/f/e/ ^d/4e/4g/4b/4 _d'>c' c'2)!f! (f'2- | f'!>(!_d'bf a>g f2)!>)! | %24
 z/ (c/_d/c/ =B/c/a/g/ f4) |!p! (9:8:9(=B/c/^c/d/e/=e/f/^f/g/ a2 =f2) | %26
 z/4 (=e/4f/4e/4 ^d/4!<(!e/4g/4b/4 _d'>c' c'2)!<)!!f!!8va(!{/f'} (!>!f''2- | %27
 (11:6:11f''/_d''/b'/g'/f'/_d'/b/g/!8va)!f/_d/B/ F/>G/!>(! A>G F2)!>)! | %28
!<(! (14:8:14(z/ F/=E/F/A/G/_d/c/f/=e/a/g/_d'/!<)!c'/!>(! f4)!>)! | %29
!mf! (5:4:5(_e/f/e/=d/e/{eg} f>e eag>f | (3fe_d (3Pdc3/2B/ f2 e2) | %31
 (5:4:5(e/f/e/=d/e/{eg} f>e (5:4:5e/c'/g/b/a/ (3ecA | %32
!<(! (9:8:9G/B/_d/f/e/a/g/c'3/4b/4!<)!!>(! a4)!>)! |!p! (a>g (3fe3/2d/ e>d c2- | %34
!mf! cB/A/ G/A/E/F/ G4) |!p! (3(gag (3fe3/2d/ e>d c2- |!mf! cB/A/ G/A/"^rit."E/F/ G4) | %37
"^a tempo" (^F>Gc>d e2 c2 |"_cresc." (3=B/c/B/ ^A/4B/4d/4f/4 _a>g g2)!f! (c'2- | %39
!>(! c'afc e>d c2)!>)! | z/ (G/A/G/ ^F/G/e/d/ c4) |!p! (G/A/=A/B/=B/c/^c/d/ e2 =c2) | %42
 z/4"_cresc." (=B/4c/4B/4 ^A/4B/4d/4f/4 _a>g g2)!f!!8va(!{/c'} (!>!c''2- | %43
!>(! (3c''/a'/f'/!8va)!d'/4c'/4a/4f/4d/4c/4A/4F/4 C/>D/ E>D C2)!>)! | %44
"_dim. e rall." (12:8:12(z/ G/^F/G/A/G/c/=B/e/d/a/g/ c4) |] %45
V:6
 z2 |!ped! C,,G,[CE]G,!ped-up!!ped! C,G,[CEG]G,!ped-up! | %2
!ped! C,G,[=B,F]G,!ped-up!!ped! C,G,[CE]G,!ped-up! | %3
"_similie"!ped! G,,G,[=B,F]G,!ped-up! C,G,[CE]G, | G,,G,[CE]G, G,,G,[=B,D]G, | %5
 C,G,[CE]G, C,G,[CEG]G, | C,G,[=B,F]G, C,G,[CE]G, | G,,G,[=B,F]G, C,G,[CE]G, | %8
 G,,G,[=B,F]G, C,G,[CE]G, | C,,G,[CE]G, C,G,[CEG]G, | C,G,[=B,F]G, C,G,[CE]G, | %11
 G,,G,[=B,F]G, C,G,[CE]G, | G,,!>!^F,[CE]F, G,,!>!G,[=B,D]G, | C,G,[CE]G, C,G,[CE]G, | %14
 C,[G,B,]C=E F,,F,[A,CF]F, | F,,F,[A,D]F, G,,G,CE | G,,G,[=B,=F]G, C,,(C,G,[CE]) | %17
 C,G,[B,=E]G, F,A,[CF]A, | C,A,[_DF]A, C,G,[C=E]G, | C,G,=EG, F,A,FC | C,A,[_DF]A, C,G,[C=E]G, | %21
 =E,_B,CG [F,A,]CFC | [G,B,]C=EC A,CFC | B,,G,[_DF]G, C,A,[CF]A, | C,B,[C=E]B, F,A,[CF]A, | %25
 C,_B,C=E [F,A,]CFC | [G,B,]C=EC A,CFC | B,,G,[_DF]G,!ped! C,F,!ped-up!!ped![A,C]F,!ped-up! | %28
 C,B,C=E [F,A,]CFC | _E,_DEG E,C[EA]C | E,E[_DG]E E,C[EA]C | E,_DEG E,C[EA]C | E,E[_DG]E [A,C]CAE | %33
 =B,,G,DF C,G,CE | G,,E,[A,C]E, G,,D,[G,=B,]D, | G,,F,G,=B, G,,E,G,C | %36
 G,,E,[A,C]E, G,,D,[G,=B,]D, | =B,,=F,G,D C,G,[CE]G, | D,G,[=B,F]G, E,G,[CE]G, | %39
 F,,D,[A,C]D, G,,E,[G,C]E, | G,,F,G,=B, C,E,[G,C]E, | G,,F,G,=B, [C,E,]G,CG, | [D,F,]G,DG, E,G,CE | %43
 F,,F,[A,D]F, G,,C,[E,G,]C, | [G,,,G,,]G,[DF]G, !arpeggio![C,G,E]4 |] %45

